svg/icon/mith.svg

<svg xmlns="http://www.w3.org/2000/svg" xmlns:xlink="http://www.w3.org/1999/xlink" width="32" height="32" viewBox="0 0 32 32"><defs><linearGradient id="mith-c" x1="50%" x2="50%" y1="0%" y2="100%"><stop offset="0%" stop-color="#FFF" stop-opacity=".5"/><stop offset="100%" stop-opacity=".5"/></linearGradient><circle id="mith-b" cx="16" cy="15" r="15"/><filter id="mith-a" width="111.7%" height="111.7%" x="-5.8%" y="-4.2%" filterUnits="objectBoundingBox"><feOffset dy=".5" in="SourceAlpha" result="shadowOffsetOuter1"/><feGaussianBlur in="shadowOffsetOuter1" result="shadowBlurOuter1" stdDeviation=".5"/><feComposite in="shadowBlurOuter1" in2="SourceAlpha" operator="out" result="shadowBlurOuter1"/><feColorMatrix in="shadowBlurOuter1" values="0 0 0 0 0 0 0 0 0 0 0 0 0 0 0 0 0 0 0.199473505 0"/></filter><path id="mith-e" d="M18.155805,18.8865369 C18.1433683,18.8634759 18.1413491,18.8529724 18.1357503,18.8503582 C17.5157533,18.5569145 16.8959399,18.2631439 16.2741531,17.9735748 C16.2412029,17.958263 16.174614,17.9621843 16.1530449,17.985432 C15.8833852,18.2759348 15.6191867,18.5716193 15.351179,18.8686576 C15.5454846,19.0120184 17.9940367,19.0133721 18.155805,18.8865369 M12.4815246,11.7240998 C12.4739066,11.7078544 12.4471976,11.6509023 12.4204886,11.5939967 C12.3683098,11.6314825 12.3000229,11.6578112 12.2662466,11.7080879 C11.693564,12.5602698 11.1240479,13.4147393 10.5583407,14.2717763 C10.5227747,14.3256007 10.5245185,14.4049137 10.5088695,14.4724161 C10.577294,14.4579446 10.6558147,14.4607455 10.7125369,14.4263874 C11.1974746,14.1324768 11.6814027,13.836699 12.1574832,13.5283636 C12.233893,13.4788806 12.3066313,13.3693176 12.3180584,13.2792678 C12.3816642,12.7789756 12.4257662,12.2761158 12.4815246,11.7240998 M24.4788105,18.974346 C24.754069,18.974346 25.0293275,18.9751395 25.3046319,18.9740658 C25.4636467,18.9735056 25.524086,18.9147329 25.4235832,18.7610553 C24.8991787,17.95929 24.376472,17.1563576 23.8492681,16.3565996 C23.8206317,16.3132786 23.7568422,16.2940455 23.7094361,16.2635621 C23.6841497,16.3144923 23.6405526,16.3639754 23.6363765,16.4166794 C23.5749274,17.1986982 23.5198116,17.9811372 23.4601523,18.7633428 C23.4488629,18.9116985 23.5010418,18.9792475 23.6529893,18.9760732 C23.928156,18.9702379 24.2035062,18.9744393 24.4788105,18.974346 M6.74460203,18.914266 C6.87135493,18.9448895 6.93266625,18.9723386 6.99402347,18.9726187 C7.88680078,18.9753263 8.77962398,18.973599 9.6724013,18.9752328 C9.84481644,18.9756063 9.88868892,18.9136125 9.81581289,18.7473308 C9.53697486,18.1115204 9.26066088,17.4744029 8.99370881,16.8333641 C8.91564701,16.645982 8.84364292,16.6550383 8.72124973,16.7871487 C8.24535271,17.3006987 7.76477473,17.8096738 7.28713382,18.3214965 C7.12045512,18.5000556 6.95712654,18.6818357 6.74460203,18.914266 M19.9402582,14.3011394 C19.9980817,14.41369 20.0170809,14.4629862 20.0460386,14.5051868 C20.4477747,15.0904405 20.8508415,15.6748073 21.2536789,16.2592674 C21.7528889,16.9836338 22.2511811,17.7086537 22.7536035,18.4307327 C22.7880224,18.4803558 22.8533262,18.5077115 22.904312,18.5453372 C22.9304243,18.4857242 22.9724153,18.4279317 22.9796203,18.3660313 C22.9993536,18.1966219 23.0035298,18.0254852 23.0153699,17.8551422 C23.069109,17.0810594 23.1290896,16.30735 23.1747977,15.5328002 C23.1943017,15.2032712 23.0523127,15.0335351 22.7393772,14.9552959 C21.9040562,14.7463934 21.0690107,14.5362305 20.233185,14.3294754 C20.1584274,14.3109893 20.07853,14.3137902 19.9402582,14.3011394 M19.7283303,9.16601324 C19.7026768,9.17016794 19.6770693,9.17436933 19.6515076,9.17852404 C19.6414114,9.33248165 19.6266802,9.48634591 19.6220451,9.64053694 C19.5843221,10.897733 19.5494444,12.1550224 19.51062,13.4121718 C19.506398,13.549604 19.5468745,13.621261 19.6896436,13.6558992 C20.5561709,13.866062 21.4201282,14.0871485 22.2861047,14.2997855 C22.3608623,14.3181316 22.4439722,14.301186 22.5232272,14.3006258 C22.5035396,14.2227601 22.4992717,14.1362115 22.4619617,14.0683357 C21.5994271,12.4976225 20.73368,10.9286833 19.8668315,9.36039757 C19.8285119,9.2911213 19.7748186,9.23062128 19.7283303,9.16601324 M15.8430464,16.8731839 C15.866543,16.7396731 15.8904526,16.6603135 15.8929307,16.5802536 C15.9061475,16.1612349 15.9066982,15.7416561 15.9257891,15.3229642 C15.9409334,14.9898406 15.8511693,14.6994779 15.6578275,14.4315225 C14.8633502,13.3302447 14.0728655,12.2259326 13.2829315,11.1212003 C13.2473196,11.0713438 13.2316246,11.0067825 13.2066595,10.9490366 C13.175499,10.9677562 13.1442467,10.9864757 13.1130404,11.0051485 C13.0898192,11.0891764 13.0541613,11.1718504 13.0453501,11.257372 C12.9753194,11.9365035 12.9155684,12.6167552 12.8402142,13.2952798 C12.8222247,13.4572201 12.8601771,13.5717313 12.9669671,13.690724 C13.862039,14.6884608 14.7514662,15.6913794 15.6438305,16.6916371 C15.6916497,16.7452749 15.7500239,16.7891094 15.8430464,16.8731839 M16.42041,16.6643748 C16.4403729,16.6777258 16.4603817,16.6910302 16.4803446,16.704288 C16.535231,16.6613872 16.6001678,16.6270758 16.6435355,16.5743717 C17.4037316,15.6510461 18.1622757,14.7262734 18.9171943,13.7984663 C18.9612963,13.744315 18.9930074,13.6627147 18.9950726,13.5928316 C19.030914,12.3580897 19.0623039,11.1232543 19.0900226,9.88832561 C19.0915828,9.82035641 19.0525749,9.75140697 19.0324743,9.68287762 C18.9770372,9.73600187 18.9001226,9.77857596 18.8692834,9.84374415 C18.1688382,11.3245009 17.5001501,12.8215964 16.7662958,14.2848473 C16.3778684,15.059397 16.4396387,15.8584547 16.42041,16.6643748 M12.9166239,18.974626 C13.3982115,18.974626 13.8799827,18.9816284 14.3612031,18.9688841 C14.4615224,18.9662232 14.5860266,18.91618 14.6548183,18.8440562 C14.9899195,18.4929132 15.3035894,18.1207635 15.6383694,17.7693405 C15.762736,17.6388639 15.7354762,17.5589441 15.6291452,17.4433126 C15.0657326,16.8305631 14.5042017,16.2158997 13.9507017,15.5938605 C13.8171569,15.4437308 13.7398753,15.4440109 13.6197308,15.6082853 C12.8586626,16.6490164 12.0893341,17.683492 11.3251912,18.7219824 C11.2871929,18.7735662 11.2725534,18.8430292 11.2469918,18.9042293 C11.3143149,18.9276638 11.3814086,18.9706113 11.449007,18.971405 C11.9381668,18.9772402 12.4274183,18.9745327 12.9166239,18.974626 M13.4152833,15.0087468 C13.1494784,14.7001314 12.8880793,14.4081348 12.6409065,14.1041408 C12.5374207,13.9768854 12.4566513,13.9633009 12.3169111,14.0512033 C11.4807182,14.5772174 10.6359895,15.0891802 9.80167824,15.6181352 C9.6508322,15.7137869 9.53188088,15.8634031 9.40407247,15.9940662 C9.28507527,16.1156266 9.30063256,16.2503511 9.36589057,16.3997338 C9.69057442,17.1427731 10.0081909,17.8888933 10.3294329,18.6335198 C10.4506329,18.9143594 10.4973507,18.9190743 10.6844511,18.6689048 C11.1786589,18.0080728 11.6718113,17.3463071 12.1652389,16.6848682 C12.5793658,16.1297245 12.9934007,15.5744407 13.4152833,15.0087468 M19.2102588,14.2213596 C19.1445419,14.326161 19.1137026,14.3895086 19.0703809,14.442306 C18.2775098,15.4082524 17.4850518,16.3744788 16.6872703,17.3362705 C16.5569379,17.4933558 16.6235268,17.5545561 16.770885,17.6220117 C17.6878932,18.0420574 18.6017806,18.4692454 19.5199819,18.8865369 C19.6346195,18.9385874 19.7685314,18.969491 19.8938617,18.9707981 C20.6503407,18.978454 21.4069572,18.9759798 22.1634821,18.9723386 C22.2345224,18.9719651 22.3054251,18.9400346 22.3764196,18.9228089 C22.3506284,18.8481642 22.3397063,18.763016 22.2968434,18.700462 C21.5993812,17.6811113 20.8981559,16.6644682 20.1971141,15.6477317 C19.8868861,15.1976693 19.5751897,14.7486808 19.2102588,14.2213596 M15.9925616,19.997898 C12.5508211,19.9979914 9.10908056,19.996871 5.66734004,19.9999987 C5.39924067,20.0002321 5.15729959,19.9694219 5.0409641,19.6816734 C4.93064044,19.4089564 5.05890776,19.2074764 5.23839024,19.0158463 C6.26641042,17.9181631 7.30737206,16.8322904 8.30863737,15.7098188 C8.69022694,15.2819773 8.98549419,14.7727688 9.30737864,14.2918496 C10.3431086,12.7443375 11.3695685,11.1904765 12.4101171,9.64637221 C12.5121344,9.49488874 12.6681203,9.34237827 12.8316783,9.28192492 C13.0580621,9.19827057 13.2507615,9.32786013 13.3948614,9.5336349 C14.2321556,10.7299575 15.0750028,11.9223121 15.9163355,13.1156937 C16.0887047,13.3601679 16.1513469,13.3519985 16.2791094,13.0737265 C17.1437092,11.1906166 18.0088597,9.30778682 18.8729547,7.42444354 C18.9748802,7.20237671 19.1103526,7.01303405 19.3720729,7.00070997 C19.6480657,6.98768566 19.8145608,7.15522777 19.9442508,7.39055231 C21.2463822,9.75346098 22.5179496,12.1348558 23.8713879,14.4670476 C24.6891782,15.876334 25.6358783,17.2081748 26.5248007,18.5747003 C26.6343442,18.7432228 26.7463199,18.9099713 26.8538442,19.0796608 C26.9838096,19.284782 27.0608158,19.5105367 26.9386521,19.7370383 C26.8197467,19.9575647 26.5970801,19.9988783 26.3637208,19.998785 C22.9066983,19.9974312 19.44963,19.997898 15.9925616,19.997898"/><filter id="mith-d" width="115.9%" height="126.9%" x="-8%" y="-9.6%" filterUnits="objectBoundingBox"><feOffset dy=".5" in="SourceAlpha" result="shadowOffsetOuter1"/><feGaussianBlur in="shadowOffsetOuter1" result="shadowBlurOuter1" stdDeviation=".5"/><feColorMatrix in="shadowBlurOuter1" values="0 0 0 0 0 0 0 0 0 0 0 0 0 0 0 0 0 0 0.204257246 0"/></filter></defs><g fill="none" fill-rule="evenodd"><use fill="#000" filter="url(#mith-a)" xlink:href="#mith-b"/><use fill="#00316D" xlink:href="#mith-b"/><use fill="url(#mith-c)" style="mix-blend-mode:soft-light" xlink:href="#mith-b"/><circle cx="16" cy="15" r="14.5" stroke="#000" stroke-opacity=".097"/><g fill-rule="nonzero"><use fill="#000" filter="url(#mith-d)" xlink:href="#mith-e"/><use fill="#FFF" fill-rule="evenodd" xlink:href="#mith-e"/></g></g></svg>

<svg xmlns="http://www.w3.org/2000/svg" xmlns:xlink="http://www.w3.org/1999/xlink" width="32" height="32" viewBox="0 0 32 32"><defs><linearGradient id="c" x1="50%" x2="50%" y1="0%" y2="100%"><stop offset="0%" stop-color="#FFF" stop-opacity=".5"/><stop offset="100%" stop-opacity=".5"/></linearGradient><circle id="b" cx="16" cy="15" r="15"/><filter id="a" width="111.7%" height="111.7%" x="-5.8%" y="-4.2%" filterUnits="objectBoundingBox"><feOffset dy=".5" in="SourceAlpha" result="shadowOffsetOuter1"/><feGaussianBlur in="shadowOffsetOuter1" result="shadowBlurOuter1" stdDeviation=".5"/><feComposite in="shadowBlurOuter1" in2="SourceAlpha" operator="out" result="shadowBlurOuter1"/><feColorMatrix in="shadowBlurOuter1" values="0 0 0 0 0 0 0 0 0 0 0 0 0 0 0 0 0 0 0.199473505 0"/></filter><path id="e" d="M18.156 18.887c-.013-.024-.015-.034-.02-.037-.62-.293-1.24-.587-1.862-.876-.033-.016-.1-.012-.121.011-.27.29-.534.587-.802.884.194.143 2.643.144 2.805.018m-5.674-7.163l-.062-.13c-.052.037-.12.064-.154.114a372.27 372.27 0 0 0-1.708 2.564c-.035.054-.033.133-.05.2.07-.014.148-.011.205-.046a57 57 0 0 0 1.444-.898.397.397 0 0 0 .161-.249c.064-.5.108-1.003.164-1.555m11.997 7.25h.826c.159 0 .22-.06.119-.213-.525-.802-1.048-1.605-1.575-2.404-.028-.044-.092-.063-.14-.093-.025.05-.068.1-.073.153-.061.782-.116 1.564-.176 2.346-.011.149.041.216.193.213.275-.006.55-.002.826-.002m-17.734-.06c.126.03.188.058.249.059.893.002 1.786 0 2.678.002.173 0 .217-.061.144-.228a107.99 107.99 0 0 1-.822-1.914c-.078-.187-.15-.178-.273-.046-.476.514-.956 1.023-1.434 1.534-.167.18-.33.36-.542.593m13.195-4.613c.058.113.077.162.106.204l1.208 1.754c.499.725.997 1.45 1.5 2.172.034.05.1.077.15.114.026-.06.068-.117.076-.179.02-.17.024-.34.035-.51.054-.775.114-1.549.16-2.323.02-.33-.123-.5-.436-.578-.835-.209-1.67-.419-2.506-.626-.075-.018-.154-.015-.293-.028m-.212-5.135l-.076.013c-.01.153-.025.307-.03.462l-.111 3.771c-.005.138.036.21.179.244.866.21 1.73.431 2.596.644.075.018.158.001.237 0-.02-.077-.024-.164-.061-.232-.863-1.57-1.728-3.14-2.595-4.708-.038-.069-.092-.13-.139-.194m-3.885 7.707c.024-.133.047-.213.05-.293.013-.419.014-.838.033-1.257a1.363 1.363 0 0 0-.268-.891 969.77 969.77 0 0 1-2.375-3.31c-.036-.05-.051-.115-.076-.173l-.094.056c-.023.084-.059.167-.068.252-.07.68-.13 1.36-.205 2.038a.46.46 0 0 0 .127.396c.895.997 1.784 2 2.677 3 .048.054.106.098.199.182m.577-.209l.06.04c.055-.043.12-.077.164-.13a619.97 619.97 0 0 0 2.273-2.776.367.367 0 0 0 .078-.205c.036-1.235.067-2.47.095-3.705.002-.068-.037-.137-.058-.205-.055.053-.132.096-.163.16-.7 1.482-1.369 2.979-2.103 4.442-.388.774-.326 1.573-.346 2.38m-3.503 2.31c.481 0 .963.007 1.444-.006a.46.46 0 0 0 .294-.125c.335-.351.649-.723.983-1.075.125-.13.097-.21-.009-.326a153.072 153.072 0 0 1-1.678-1.85c-.134-.15-.211-.149-.331.015-.761 1.041-1.53 2.075-2.295 3.114-.038.052-.052.121-.078.182.067.024.134.067.202.067.49.006.978.004 1.468.004m.498-3.966c-.266-.309-.527-.6-.774-.905-.104-.127-.184-.14-.324-.053-.836.526-1.681 1.038-2.515 1.567-.151.096-.27.245-.398.376-.119.122-.103.256-.038.406.325.743.642 1.489.963 2.234.122.28.168.285.355.035.495-.66.988-1.323 1.481-1.984l1.25-1.676m5.795-.788c-.065.105-.096.169-.14.221-.792.966-1.585 1.932-2.383 2.894-.13.157-.063.219.084.286.917.42 1.83.847 2.749 1.265a.954.954 0 0 0 .374.084c.756.007 1.513.005 2.27.001.07 0 .141-.032.212-.05-.025-.074-.036-.159-.08-.222a915.472 915.472 0 0 0-2.099-3.052c-.31-.45-.622-.9-.987-1.427m-3.217 5.777c-3.442 0-6.884-.001-10.326.002-.268 0-.51-.03-.626-.318-.11-.273.018-.475.197-.666 1.028-1.098 2.07-2.184 3.07-3.306.382-.428.677-.937 1-1.418 1.035-1.548 2.062-3.102 3.102-4.646.102-.151.258-.304.422-.364.226-.084.419.046.563.252.837 1.196 1.68 2.388 2.521 3.582.173.244.235.236.363-.042l2.594-5.65c.102-.222.237-.411.5-.423.275-.013.442.154.571.39 1.302 2.362 2.574 4.744 3.927 7.076.818 1.41 1.765 2.741 2.654 4.108.11.168.221.335.329.505.13.205.207.43.085.657-.12.22-.342.262-.575.262-3.457-.002-6.914-.001-10.371-.001"/><filter id="d" width="115.9%" height="126.9%" x="-8%" y="-9.6%" filterUnits="objectBoundingBox"><feOffset dy=".5" in="SourceAlpha" result="shadowOffsetOuter1"/><feGaussianBlur in="shadowOffsetOuter1" result="shadowBlurOuter1" stdDeviation=".5"/><feColorMatrix in="shadowBlurOuter1" values="0 0 0 0 0 0 0 0 0 0 0 0 0 0 0 0 0 0 0.204257246 0"/></filter></defs><g fill="none" fill-rule="evenodd"><use fill="#000" filter="url(#a)" xlink:href="#b"/><use fill="#00316D" xlink:href="#b"/><use fill="url(#c)" style="mix-blend-mode:soft-light" xlink:href="#b"/><circle cx="16" cy="15" r="14.5" stroke="#000" stroke-opacity=".097"/><g fill-rule="nonzero"><use fill="#000" filter="url(#d)" xlink:href="#e"/><use fill="#FFF" fill-rule="evenodd" xlink:href="#e"/></g></g></svg>
